polaris-icons/icons/new-icons/OrganizationMajor.svg

<svg width="20" height="20" viewBox="0 0 20 20" fill="none" xmlns="http://www.w3.org/2000/svg">
<path d="M14.25 9.75C14.25 9.33579 13.9142 9 13.5 9C13.0858 9 12.75 9.33579 12.75 9.75V10.25C12.75 10.6642 13.0858 11 13.5 11C13.9142 11 14.25 10.6642 14.25 10.25V9.75Z" fill="#4A4A4A"/>
<path d="M13.5 12.25C13.9142 12.25 14.25 12.5858 14.25 13V13.5C14.25 13.9142 13.9142 14.25 13.5 14.25C13.0858 14.25 12.75 13.9142 12.75 13.5V13C12.75 12.5858 13.0858 12.25 13.5 12.25Z" fill="#4A4A4A"/>
<path d="M7.25 6.5C7.25 6.08579 6.91421 5.75 6.5 5.75C6.08579 5.75 5.75 6.08579 5.75 6.5V7C5.75 7.41421 6.08579 7.75 6.5 7.75C6.91421 7.75 7.25 7.41421 7.25 7V6.5Z" fill="#4A4A4A"/>
<path d="M6.5 9C6.91421 9 7.25 9.33579 7.25 9.75V10.25C7.25 10.6642 6.91421 11 6.5 11C6.08579 11 5.75 10.6642 5.75 10.25V9.75C5.75 9.33579 6.08579 9 6.5 9Z" fill="#4A4A4A"/>
<path d="M7.25 13C7.25 12.5858 6.91421 12.25 6.5 12.25C6.08579 12.25 5.75 12.5858 5.75 13V13.5C5.75 13.9142 6.08579 14.25 6.5 14.25C6.91421 14.25 7.25 13.9142 7.25 13.5V13Z" fill="#4A4A4A"/>
<path d="M9.25 5.75C9.66421 5.75 10 6.08579 10 6.5V7C10 7.41421 9.66421 7.75 9.25 7.75C8.83579 7.75 8.5 7.41421 8.5 7V6.5C8.5 6.08579 8.83579 5.75 9.25 5.75Z" fill="#4A4A4A"/>
<path d="M10 9.75C10 9.33579 9.66421 9 9.25 9C8.83579 9 8.5 9.33579 8.5 9.75V10.25C8.5 10.6642 8.83579 11 9.25 11C9.66421 11 10 10.6642 10 10.25V9.75Z" fill="#4A4A4A"/>
<path d="M9.25 12.25C9.66421 12.25 10 12.5858 10 13V13.5C10 13.9142 9.66421 14.25 9.25 14.25C8.83579 14.25 8.5 13.9142 8.5 13.5V13C8.5 12.5858 8.83579 12.25 9.25 12.25Z" fill="#4A4A4A"/>
<path fill-rule="evenodd" clip-rule="evenodd" d="M5.25 3.5C4.2835 3.5 3.5 4.2835 3.5 5.25V14.75C3.5 15.7165 4.2835 16.5 5.25 16.5H14.75C15.7165 16.5 16.5 15.7165 16.5 14.75V8.5C16.5 7.5335 15.7165 6.75 14.75 6.75H12.25V5.25C12.25 4.2835 11.4665 3.5 10.5 3.5H5.25ZM12.25 8.25V14.75C12.25 14.8349 12.244 14.9183 12.2323 15H14.75C14.8881 15 15 14.8881 15 14.75V8.5C15 8.36193 14.8881 8.25 14.75 8.25H12.25ZM10.5 15C10.6381 15 10.75 14.8881 10.75 14.75V5.25C10.75 5.11193 10.6381 5 10.5 5H5.25C5.11193 5 5 5.11193 5 5.25V14.75C5 14.8881 5.11193 15 5.25 15H10.5Z" fill="#4A4A4A"/>
</svg>

<svg viewBox="0 0 20 20" xmlns="http://www.w3.org/2000/svg"><path d="M14.25 9.75a.75.75 0 0 0-1.5 0v.5a.75.75 0 0 0 1.5 0v-.5Z" fill="#5C5F62"/><path d="M13.5 12.25a.75.75 0 0 1 .75.75v.5a.75.75 0 0 1-1.5 0v-.5a.75.75 0 0 1 .75-.75Z" fill="#5C5F62"/><path d="M7.25 6.5a.75.75 0 0 0-1.5 0v.5a.75.75 0 0 0 1.5 0v-.5Z" fill="#5C5F62"/><path d="M6.5 9a.75.75 0 0 1 .75.75v.5a.75.75 0 0 1-1.5 0v-.5a.75.75 0 0 1 .75-.75Z" fill="#5C5F62"/><path d="M7.25 13a.75.75 0 0 0-1.5 0v.5a.75.75 0 0 0 1.5 0v-.5Z" fill="#5C5F62"/><path d="M9.25 5.75a.75.75 0 0 1 .75.75v.5a.75.75 0 0 1-1.5 0v-.5a.75.75 0 0 1 .75-.75Z" fill="#5C5F62"/><path d="M10 9.75a.75.75 0 0 0-1.5 0v.5a.75.75 0 0 0 1.5 0v-.5Z" fill="#5C5F62"/><path d="M9.25 12.25a.75.75 0 0 1 .75.75v.5a.75.75 0 0 1-1.5 0v-.5a.75.75 0 0 1 .75-.75Z" fill="#5C5F62"/><path fill-rule="evenodd" d="M5.25 3.5a1.75 1.75 0 0 0-1.75 1.75v9.5c0 .966.784 1.75 1.75 1.75h9.5a1.75 1.75 0 0 0 1.75-1.75v-6.25a1.75 1.75 0 0 0-1.75-1.75h-2.5v-1.5a1.75 1.75 0 0 0-1.75-1.75h-5.25Zm7 4.75v6.5c0 .085-.006.168-.018.25h2.518a.25.25 0 0 0 .25-.25v-6.25a.25.25 0 0 0-.25-.25h-2.5Zm-1.75 6.75a.25.25 0 0 0 .25-.25v-9.5a.25.25 0 0 0-.25-.25h-5.25a.25.25 0 0 0-.25.25v9.5c0 .138.112.25.25.25h5.25Z" fill="#5C5F62"/></svg>
